<?xml version="1.0" encoding="UTF-8"?>
<map version="1.0" tiledversion="1.0.3" orientation="orthogonal" renderorder="left-down" width="18" height="57" tilewidth="18" tileheight="18" nextobjectid="1">
 <properties>
  <property name="storm" value="100"/>
 </properties>
 <tileset firstgid="1" source="tilemap.tsx"/>
 <layer name="chars" width="18" height="57">
  <data encoding="csv">
0,0,30,0,31,30,31,30,0,0,0,52,0,0,31,30,31,30,
29,0,31,0,30,31,30,31,0,0,0,72,6,0,30,31,30,31,
0,0,0,0,0,0,0,0,0,0,0,0,0,0,0,0,0,0,
0,71,0,71,0,71,0,0,0,0,0,0,0,0,30,0,0,31,
0,0,0,0,109,0,0,0,0,0,0,0,0,0,0,30,31,0,
0,0,0,30,129,0,30,0,0,30,0,0,0,0,0,31,30,0,
31,30,0,0,0,0,0,0,0,0,0,30,31,0,31,0,0,30,
30,31,0,0,0,0,0,0,0,0,0,0,0,0,0,0,0,0,
0,109,0,0,0,0,0,0,0,0,0,0,0,0,0,0,0,0,
0,129,0,0,0,30,31,0,0,0,0,31,0,0,0,0,0,0,
0,0,0,0,0,0,0,0,0,30,31,30,31,0,0,0,30,31,
0,0,0,0,0,0,0,0,0,0,0,31,0,0,0,0,0,0,
0,0,0,0,0,128,0,0,0,0,0,0,0,0,0,0,0,0,
0,0,0,0,0,0,0,0,0,0,0,0,0,31,30,0,0,0,
109,0,0,30,0,0,0,0,30,0,0,0,30,0,0,30,0,30,
129,0,0,30,0,30,0,0,30,0,0,0,30,0,0,0,0,30,
0,0,31,30,31,0,0,0,0,0,0,0,0,0,128,0,0,0,
31,30,0,0,0,0,0,0,30,31,0,0,0,0,0,0,30,31,
30,31,0,0,0,0,0,0,0,0,0,0,0,0,0,0,0,0,
0,0,0,0,0,0,0,0,0,0,0,0,0,0,0,0,0,109,
0,0,0,0,0,0,30,31,0,0,0,30,31,0,0,0,6,129,
0,0,0,0,0,0,0,0,0,0,0,0,0,0,0,0,0,0,
69,69,69,69,69,0,0,0,0,0,0,30,31,0,0,0,0,0,
0,0,0,0,0,0,0,0,30,31,0,0,0,0,0,0,109,0,
0,0,0,0,0,0,0,0,0,0,0,0,0,0,0,0,129,0,
0,0,0,0,0,0,0,0,30,31,30,31,30,0,0,0,0,6,
0,0,0,0,0,0,0,0,0,0,0,0,0,0,0,0,0,0,
30,31,0,0,0,0,0,0,0,0,0,0,0,0,0,0,0,0,
0,0,0,0,0,30,31,0,5,0,0,25,26,0,0,0,0,0,
0,0,0,0,0,0,0,0,0,0,0,0,0,0,0,0,0,0,
0,0,0,0,0,0,0,0,0,0,0,0,0,0,0,0,0,0,
0,0,0,0,0,0,0,0,0,0,0,0,0,0,0,0,0,0,
30,30,30,30,30,30,30,30,30,30,0,0,0,0,0,0,0,0,
0,0,0,0,0,0,0,0,0,0,0,0,30,30,0,30,30,0,
0,0,0,0,0,0,0,0,0,0,0,30,0,0,0,0,0,30,
0,0,0,0,0,0,0,0,0,0,0,0,0,0,0,0,0,0,
0,0,0,0,0,0,0,0,0,0,0,31,0,0,33,0,0,31,
0,0,0,0,0,0,0,0,0,0,0,0,31,0,53,0,31,0,
0,0,0,0,0,0,134,0,0,0,0,31,0,0,73,0,0,31,
0,0,0,0,0,0,0,0,0,0,0,0,0,0,0,0,0,0,
0,0,0,0,0,0,36,0,70,0,70,0,0,36,70,36,0,0,
0,0,0,0,0,0,76,0,110,134,110,0,0,76,90,76,0,0,
0,0,0,0,0,0,0,0,0,0,0,0,0,0,110,0,30,31,
0,0,0,0,0,0,0,0,35,0,0,0,0,0,0,0,0,0,
0,0,0,0,0,0,0,0,55,0,0,0,0,0,0,0,0,0,
0,0,0,0,0,0,0,0,56,0,0,0,0,0,0,0,0,0,
0,0,0,30,0,0,0,0,76,0,0,0,0,0,0,0,0,0,
30,0,0,0,0,0,0,0,0,0,0,0,0,0,0,0,0,0,
0,0,0,0,0,0,35,0,0,0,0,0,0,35,0,35,30,31,
0,0,0,0,0,0,55,0,0,66,66,0,0,55,0,55,0,134,
0,0,0,0,0,0,75,0,0,0,0,0,0,75,0,75,0,0,
0,0,0,0,34,54,54,54,54,54,54,54,54,54,54,54,54,0,
0,0,0,0,0,0,0,0,0,0,0,0,0,0,0,0,0,0,
0,0,0,0,0,0,0,0,0,0,0,0,0,0,0,0,0,0,
0,0,0,0,0,0,0,0,30,0,0,0,30,0,0,0,30,0,
0,0,0,0,0,0,0,0,0,0,6,0,0,0,0,0,0,0,
69,69,69,69,69,69,69,69,69,69,69,69,69,69,69,69,69,69
</data>
 </layer>
 <layer name="tiles" width="18" height="57">
  <data encoding="csv">
0,0,0,0,0,0,0,0,0,0,0,0,0,0,0,0,0,0,
0,0,0,0,0,0,0,0,0,0,0,0,0,0,0,0,0,0,
65,65,65,65,65,65,65,65,0,0,65,65,65,65,65,65,65,65,
0,0,0,0,0,0,0,65,12,12,65,0,0,0,0,0,0,0,
0,0,0,0,0,0,0,0,0,0,0,0,0,0,0,0,0,0,
0,0,0,0,0,0,0,0,0,0,0,0,0,0,0,0,0,0,
0,0,65,65,65,65,65,65,65,65,65,0,0,65,0,0,0,0,
0,0,65,0,0,0,0,0,0,0,65,0,0,65,65,65,65,65,
0,0,0,0,0,0,0,0,0,0,0,0,0,0,0,0,0,0,
0,0,0,0,65,0,0,65,0,0,0,0,0,0,0,0,0,0,
65,65,65,65,65,65,65,65,65,0,0,0,0,65,65,65,0,0,
0,0,0,0,0,0,0,0,0,0,0,0,0,0,0,0,0,0,
0,0,0,0,0,0,0,0,0,0,0,0,0,0,0,0,0,0,
0,0,65,65,65,65,65,65,65,65,65,65,65,0,0,65,65,65,
0,0,0,0,0,0,0,0,0,0,0,0,0,0,0,0,0,0,
0,0,0,0,0,0,0,0,0,0,0,0,0,0,0,0,0,0,
65,65,0,0,0,65,65,65,0,0,0,0,0,0,0,0,0,0,
0,0,0,0,0,65,0,0,0,0,65,65,65,65,65,65,0,0,
0,0,0,0,0,65,0,0,0,0,0,0,0,0,0,0,0,0,
48,48,0,0,0,65,0,0,0,0,0,0,0,0,0,0,0,0,
0,0,0,0,132,65,0,0,65,65,65,0,0,0,0,0,0,0,
0,0,0,0,0,65,0,0,0,0,65,0,0,0,0,65,65,65,
0,0,0,0,0,65,0,0,0,0,65,0,0,0,0,0,0,0,
65,65,65,65,65,65,65,65,0,0,65,65,65,0,0,0,0,0,
0,0,0,0,0,0,0,0,0,0,0,0,0,0,0,0,0,0,
0,0,0,0,0,0,0,0,0,0,0,0,0,0,0,0,65,0,
0,0,65,65,65,65,65,65,65,65,65,12,12,65,65,65,65,65,
0,0,0,0,0,0,0,0,0,0,0,0,0,0,0,0,0,0,
0,0,0,0,0,0,0,0,0,0,0,0,0,0,0,0,0,0,
2,3,3,3,3,3,3,3,3,3,3,3,3,4,9,9,2,4,
0,0,0,0,0,0,0,0,0,0,0,0,0,0,0,0,0,0,
0,0,0,0,0,0,0,0,0,0,0,0,0,0,0,0,0,0,
0,0,0,0,0,0,0,0,0,0,0,0,0,0,0,42,43,44,
0,0,0,0,0,0,0,0,0,0,0,0,0,0,0,0,0,0,
12,12,42,43,44,12,12,42,43,44,0,0,0,0,0,0,0,0,
0,0,0,0,0,0,0,0,0,0,0,15,14,14,13,14,14,16,
0,0,0,0,0,0,0,0,0,0,0,0,0,0,0,0,0,0,
122,123,124,0,0,0,0,0,0,0,0,0,0,0,0,0,0,0,
102,83,104,0,0,0,0,0,0,0,0,0,0,0,0,0,0,0,
95,81,0,0,0,2,3,3,3,3,3,3,3,3,3,3,3,4,
116,81,0,0,0,0,0,0,0,0,0,0,0,0,0,0,0,0,
115,81,0,0,0,0,0,0,0,0,0,0,0,0,0,0,0,0,
2,103,4,0,0,0,96,0,94,112,95,0,0,96,0,96,0,0,
0,0,0,0,0,0,116,0,0,0,116,0,0,116,94,115,0,0,
0,0,0,0,0,0,116,0,0,94,115,0,0,116,115,0,0,0,
0,0,45,45,45,0,116,0,0,114,95,0,0,116,95,0,0,0,
0,0,0,0,0,0,116,0,0,0,116,0,47,116,114,95,0,0,
0,0,0,0,0,0,136,0,114,112,115,0,0,136,0,136,0,0,
45,0,0,0,0,0,0,0,0,0,0,0,0,0,0,0,0,0,
0,0,0,0,0,0,0,0,0,0,0,0,0,0,0,0,0,0,
0,0,0,61,0,0,0,0,0,47,47,0,0,0,0,0,42,63,
0,0,0,81,0,0,0,0,0,0,0,0,0,0,0,0,0,82,
45,0,0,102,103,103,103,103,103,103,103,103,103,103,103,103,103,103,
0,0,0,0,0,0,0,0,0,0,0,0,0,0,0,0,0,0,
0,0,0,0,0,0,0,0,0,0,0,0,0,0,0,0,0,0,
0,45,45,45,0,0,65,65,65,0,0,0,65,65,65,65,65,0,
0,0,0,0,0,0,0,0,0,0,0,0,0,0,0,0,0,0
</data>
 </layer>
</map>
